!!!!SEGMENT: pl-kk--kk-i-386--003-002_anonim--missa-3tia-gloria.krn
!!!cenid: 18xx:4517
!!!COM: Anonim
!!!COM-rismID: pe30004985
!!!CDT:
!!!CNT:
!!!OPR: Missa 3tia
!!!OTL: Gloria
!!!OMV: 002
!!!PDT:
!!!AGN: Sacred
!!!YEC: Copyright 2022 Narodowy Instytut Fryderyka Chopina (https://polishscores.org)
!!!YEM: License CC-BY-4.0 (https://creativecommons.org/licenses/by/4.0)
!!!SMS-siglum: PL-Kk
!!!SMS-shelfmark: Kk.I.386
!!!SMS-variant:
!!!SMS-altvar:
!!!SMS-shelfwork: 003-002 M
!!!NIFC-rismSourceID: 1001218240
!!!NIFC-rismChildID: 1001218244
!!!NIFC-islandoraID: pl-kk:16060
!!!URL-pdf-islandora: https://repozytorium.nifc.pl/islandora/object/pl-kk%3A16060/datastream/PDF/view
!!!URL-scan: https://polish.musicsources.pl/pl/lokalizacje/galeria/rekopisy/7134/3 @EN{Scan on Polish Music Sources Website} @PL{Skany w portalu Dziedzictwo Muzyki Polskiej w otwartym dostępie}
!!!IIIF:
!!!ONB-nifc: UWAGA: Części Missy 3tia: Kyrie, Gloria, Graduale, Offertorium, Sanctus, Benedictus, Agnus. Zakres skanów: S -9-11, A – 19-21, T – 29-31, B – 39-41
!!!AIN: 1 alto 1 bass 1 soprn 1 tenor
!!!key:
**kern	**text	**kern	**text	**kern	**text	**kern	**text
*part4	*part4	*part3	*part3	*part2	*part2	*part1	*part1
*staff4	*staff4	*staff3	*staff3	*staff2	*staff2	*staff1	*staff1
*I"Basso.	*	*I"Tenore.	*	*I"Alto.	*	*I"Soprano.	*
*I'B	*	*I'T	*	*I'A	*	*I'S	*
*Ibass	*	*Itenor	*	*Ialto	*	*Isoprn	*
*ICvox	*	*ICvox	*	*ICvox	*	*ICvox	*
*clefF4	*	*clefC4	*	*clefC3	*	*clefC1	*
*k[f#c#]	*	*k[f#c#]	*	*k[f#c#]	*	*k[f#c#]	*
*D:	*	*D:	*	*D:	*	*D:	*
*M3/4	*	*M3/4	*	*M3/4	*	*M3/4	*
=1	=1	=1	=1	=1	=1	=1	=1
!LO:TX:a:t=in D.	!	!LO:TX:a:t=in D.	!	!LO:TX:a:t=in D.	!	!	!
4D\	Glo-	4A\	Glo-	4f#\	Glo-	4dd\	Glo-
8D\	-ri-	8A\	-ri-	8f#\	-ri-	8dd\	-ri-
8D\	-a	8A\	-a	8f#\	-a	8dd\	-a
8F#\	in	8A\	in	8f#\	in	8dd\	in
8G\	ex-	8A\	ex-	8f#\	ex-	8dd\	ex-
=2	=2	=2	=2	=2	=2	=2	=2
!LO:TX:t=P:problem=mixed beam	!	!	!	!	!	!	!
8.A\L	-cel-	4A\	-cel-	8.f#\L	-cel-	8.dd\L	-cel-
16AA/Jk	.	.	.	16e\Jk	.	16cc#\Jk	.
4AA/	-sis	4A\	-sis	4e\	-sis	4cc#\	-sis,
8r	.	8r	.	8r	.	8r	.
[8A\	in	[8A\	in	(8e\	in	(8cc#\	in
=3	=3	=3	=3	=3	=3	=3	=3
8A\]	.	8A\]	.	8g\)	.	8ee\)	.
8A\	ex-	8A\	ex-	8g\	ex-	8ee\	ex-
4A\	-cel-	4c#\	-cel-	4g\	-cel-	4ee\	-cel-
4AA/	-sis	4A\	-sis	4g\	-sis	4ee\	-sis
=4	=4	=4	=4	=4	=4	=4	=4
4D\	De-	4A\	De-	8.g\L	De-	8.ee\L	De-
.	.	.	.	16f#\Jk	.	16dd\Jk	.
4D\	-o,	4A\	-o,	4f#\	-o	4dd\	-o,
!LO:LB:g=original	!	!LO:LB:g=original	!	!	!	!	!
8r	.	8r	.	8r	.	8r	.
8D\	in	8d\	in	8a\	in	8ff#\	in
!	!	!	!	!	!	!LO:LB:g=original	!
=5	=5	=5	=5	=5	=5	=5	=5
8D\	ter-	4d\	ter-	4a\	Ter-	4ff#\	ter-
8D\	-ra	.	.	.	.	.	.
8D\L	pax	4d\	-ra	4a\	-ra	4ff#\	-ra
8E\J	.	.	.	.	.	.	.
!	!	!	!	!LO:LB:g=original	!	!	!
8F#\L	ho-	8d\	pax	8a\	pax	8ff#\	pax
8G\J	.	8d\	ho-	8a\	ho-	8ff#\	ho-
=6	=6	=6	=6	=6	=6	=6	=6
*	*	*	*	*2\right	*	*	*
(4A\	-mi-	(4d\	-mi-	2a\	-mi-	(4ff#\	-mi-
4AA/)	.	4c#\)	.	.	.	4ee\)	.
8A\	-ni-	8c#\	-ni-	8a\	-ni-	8ee\	-ni-
8A\	-bus	8c#\	-bus	8a\	-bus	8ee\	-bus
=7	=7	=7	=7	=7	=7	=7	=7
*	*	*2\right	*	*	*	*	*
4B\	bo-	2B\	bo-	4f#\	bo-	2dd\	bo-
4G#X\	.	.	.	4e\	.	.	.
4G#\	-ne	4B\	-ne	4e\	-ne	4dd\	-ne
=8	=8	=8	=8	=8	=8	=8	=8
8A\	vo-	8A\	vo-	8e\	vo-	8cc#\	vo-
8D\	-lun-	8f#\	-lun-	8b\	-lun-	8dd\	-lun-
2E\	-ta-	4e\	-ta-	4a\	-ta-	4cc#\	-ta-
.	.	4d\	.	4g#X\	.	4b\	.
=9	=9	=9	=9	=9	=9	=9	=9
4AA/	-tis,	4c#\	-tis	4a\	-tis	4a\	-tis
4r	.	4r	.	4r	.	4r	.
4r	.	4r	.	4r	.	4r	.
!LO:LB:g=original	!	!LO:LB:g=original	!	!	!	!	!
=10	=10	=10	=10	=10	=10	=10	=10
4A\	Lau-	4c#\	Lau-	4e\	Lau-	4e/	Lau-
8A\	-da-	8c#\	-da-	8e\	-da-	8a\	-da-
8A\	-mus	8e\	-mus	8a\	-mus	8cc#\	-mus
8G#X\L	te	4e\	te	4b\	te,	4ee\	te
8E\J	.	.	.	.	.	.	.
!	!	!	!	!	!	!LO:LB:g=original	!
=11	=11	=11	=11	=11	=11	=11	=11
8A\	be-	8c#\	be-	8a\	br-	8ee\	be-
8A\	-ne-	8e\	-ne-	8a\	-ne-	8cc#\	-ne-
!	!	!	!	!LO:LB:g=original	!	!	!
8G#X\L	-di-	4e\	-di-	8e\L	-di-	8b\L	-di-
8A\J	.	.	.	8a\J	.	8cc#\J	.
8F#\	-ci-	8d\	-ci-	8a\	-ci-	8dd\	-ci-
8G#\	-mus	8B\	-mus	8b\	-mus	8dd\	-mus-
=12	=12	=12	=12	=12	=12	=12	=12
8A\	te,	8A\	te,	8e\	te,	8cc#\	-te,
8Gn\	glo-	8A\	glo-	8e\	glo-	8cc#\	glo-
8F#\	-ri-	8A\	-ri-	8a\	-ri-	8dd\	-ri-
16E\LL	-fi-	16c#\LL	-fi-	8a\	-fi-	16ee\LL	-fi-
16D\JJ	.	16d\JJ	.	.	.	16ff#\JJ	.
8C#/	-ca-	8e\	-ca-	8a\	-ca-	8gg\	-ca-
8D/	-mus	8d\	-mus	8a\	-mus	8ff#\	-mus
=13	=13	=13	=13	=13	=13	=13	=13
(4A\	te,	(4d\	te,	2a\	te,	(4ff#\	te,
4AA/)	.	4c#\)	.	.	.	4ee\)	.
8r	.	8r	.	8r	.	8r	.
(8A\	gra-	[8c#\	gra-	(8a\	Gra-	8ee\	gra-
!LO:LB:g=original	!	!	!	!	!	!	!
=14	=14	=14	=14	=14	=14	=14	=14
8F#\)	.	8c#\]	.	8a#X\)	.	8ff#\	.
8F#\	-ti-	8c#\	-ti-	8a#\	-ti-	8ff#\	-ti-
!	!	!LO:LB:g=original	!	!	!	!	!
8F#\	-as	8c#\	-as	8a#\	-as	8ff#\	-as
8F#\	a-	8c#\	a-	8a#\	a-	8ff#\	a-
8A#X\	-gi-	8c#\	-gi-	8a#\	-gi-	8ff#\	-gi-
8F#\	-mus	8c#\	-mus	8a#\	-mus	8ff#\	-mus
!	!	!	!	!	!	!LO:LB:g=original	!
=15	=15	=15	=15	=15	=15	=15	=15
8B\L	ti-	8B\L	ti-	4f#\	ti-	8dd\L	ti-
8A#X\J	.	8c#\J	.	.	.	8ee\J	.
4B\	-bi	4B\	-bi,	4f#\	-bi	4dd\	-bi,
8BB/	pro-	8B\	pro-	8f#\	pro-	8dd\	pro-
8BB/	-pter	8B\	-pter	8f#\	-pter	8dd\	-pter
!	!	!	!	!LO:LB:g=original	!	!	!
=16	=16	=16	=16	=16	=16	=16	=16
8F#\	ma-	8A#X\	ma-	8f#\	ma-	8cc#\	ma-
8F#\	-gnam	8f#\	-gnam	8a#X\	-gnam	8cc#\	-gnam
8A#X\L	glo-	4f#\	glo-	4a#\	glo-	4cc#\	glo-
8c#\J	.	.	.	.	.	.	.
8F#\	-ri-	8f#\	-ri-	8a#\	-ri-	8cc#\	-ri-
8E\	-am	8f#\	-am	8a#\	-am	8cc#\	-am
=17	=17	=17	=17	=17	=17	=17	=17
8D\	glo-	8B\	glo-	8b\	glo-	8ff#\	glo-
16E\	-ri-	16g\	-ri-	16cc#X\	-ri-	16ee\	-ri-
16E\	-am	16g\	-am	16cc#\	-am	16ee\	-am
*2\right	*	*	*	*	*	*	*
2F#\	tu-	2f#\	tu-	4b\	tu-	4dd\	tu-
.	.	.	.	4a#X\	.	4cc#\	.
=18	=18	=18	=18	=18	=18	=18	=18
8BB/	-am,	8d\	-am,	4b\	-am.	4b\	-am,
8B\	Do-	8d\	Do-	.	.	.	.
!	!	!LO:LB:g=original	!	!	!	!	!
8B\	-mi-	8d\	-mi-	4r	.	4r	.
8B\	-ne	8d\	-ne	.	.	.	.
8F#\	De-	8d\	De-	4r	.	4r	.
8G\	-us	8d\	-us	.	.	.	.
=19	=19	=19	=19	=19	=19	=19	=19
!	!	!	!	!LO:TX:a:t=1.	!	!LO:TX:a:t=1.	!
8A\	Rex	8d\	Rex	2.r	.	2.r	.
8B\	ce-	8d\	ce-	.	.	.	.
2cn\	-les-	2d\	-les-	.	.	.	.
!	!	!	!	!	!	!LO:LB:g=original	!
=20	=20	=20	=20	=20	=20	=20	=20
4B\	-tis,	4d\	-tis	4r	.	4r	.
8G\	De-	8d\	De-	8b\	De-	8dd\	De-
8F#\	-us	8d\	-us	8a\	-us	8dd\	-us
8E\	Pa-	8e\	Pa-	8b\	Pa-	8gg\	Pa-
16F#\	-ter	16B\	-ter	16g\	-ter	16ee\	-ter
16G\	om-	16B\	om-	16g\	om-	16ee\	om-
=21	=21	=21	=21	=21	=21	=21	=21
8.A\	-ni-	8.A\	-ni-	8.f#\	-ni-	8.dd\	-ni-
16A\	-po-	16A\	-po-	16e\	-po-	16cc#\	-po-
!	!	!	!	!LO:LB:g=original	!	!	!
4A\	-tens	4A\	-tens	4e\	-tens	4cc#\	-tens
8A\L	Do-	[4A\	Do-	(4e\	Do-	(4cc#\	Do-
(8G\J	.	.	.	.	.	.	.
!LO:LB:g=original	!	!	!	!	!	!	!
=22	=22	=22	=22	=22	=22	=22	=22
4F#\)	.	4A\]	.	4f#\)	.	4dd\)	.
!	!	!LO:LB:g=original	!	!	!	!	!
8F#\	-mi-	8d\	-mi-	8a\	-mi-	8dd\	-mi-
8F#\	-ne	8d\	-ne	8a\	-ne	8dd\	-ne
8E\	fi-	8.G/	fi-	8a\	fi-	8ccn\	fi-
8F#\	-li	.	.	8a\	-l	8cc\	-li
.	.	16d\	-li	.	.	.	.
=23	=23	=23	=23	=23	=23	=23	=23
8G\	u-	8.d\	u-	8g\	u-	8b\	u-
8G\	-ni	.	.	8g\	-ni	8dd\	-ni
.	.	16A\	-ni	.	.	.	.
4G\	ge-	4d\	ge-	4b\	ge-	4gg\	ge-
8G\	-ni-	8d\	-ni-	8b\	-ni-	8dd\	-ni-
8G\	-te	8d\	-te	8b\	-te	8dd\	-te
!	!	!	!	!	!	!LO:LB:g=original	!
=24	=24	=24	=24	=24	=24	=24	=24
8cn\	J-	8cn\	Je-	8g\	Je-	8ee\	Je-
8Cn/	-su	8e\	-su	8a\	-su	8ccn\	-su
2D/	Chri-	(4d\	Chris-	4g\	Chri-	4b\	Chri-
.	.	4c\)	.	4f#\	.	4a\	.
=25	=25	=25	=25	=25	=25	=25	=25
4GG/	-ste,	4B\	-te	4g\	-ste,	4g\	-ste,
4r	.	4r	.	4r	.	4r	.
4r	.	4r	.	4r	.	4r	.
=26	=26	=26	=26	=26	=26	=26	=26
!	!	!	!	!LO:TX:a:t=1.	!	!LO:TX:a:t=1.	!
8.G\	Quo-	8.G/	Quo-	2.r	.	2.r	.
16F#\	-ni-	16A/	-ni-	.	.	.	.
8G\	-am	8B\	-am	.	.	.	.
8B\	tu	8d\	tu	.	.	.	.
!LO:LB:g=original	!	!LO:LB:g=original	!	!	!	!	!
8A\	so-	8cn\	so-	.	.	.	.
8G\	-lus	8B\	-lus	.	.	.	.
!	!	!	!	!LO:LB:g=original	!	!	!
=27	=27	=27	=27	=27	=27	=27	=27
8.G\L	san-	8B\L	san-	4r	.	4r	.
.	.	8A\J	.	.	.	.	.
16F#\Jk	.	.	.	.	.	.	.
4F#\	-ctus,	4A\	-ctus,	4r	.	4r	.
4r	.	4r	.	8f#\	Quo-	8a\	Quo-
.	.	.	.	8g\	-ni-	8b\	-ni-
=28	=28	=28	=28	=28	=28	=28	=28
!LO:TX:a:t=1.	!	!LO:TX:a:t=1.	!	!	!	!	!
2.r	.	2.r	.	8a\	-am	8ccn\	-am
.	.	.	.	8a\	tu	8cc\	tu
.	.	.	.	4ccn\	so-	4ee\	so-
.	.	.	.	8b\L	-lus	8dd\L	-lus
.	.	.	.	8a\J	.	8cc\J	.
=29	=29	=29	=29	=29	=29	=29	=29
4r	.	4r	.	8.a\	Do-	8.ccn\	Do-
.	.	.	.	16g\	-mi-	16b\	-mi-
8G\	Do-	8d\	Do-	4g\	-nus,	4b\	-nus,
8G\	-mi-	8d\	-mi-	.	.	.	.
8G\	-nus	8d\	-nus	4g\	tu	4b\	tu
8Fn\	tu	8d\	tu	.	.	.	.
!	!	!	!	!	!	!LO:LB:g=original	!
=30	=30	=30	=30	=30	=30	=30	=30
*	*	*	*	*	*	*2\right	*
4E\	so-	2cn\	so-	2g\	so-	2ccn\	so-
8E\L	.	.	.	.	.	.	.
8Cn\J	.	.	.	.	.	.	.
8BB/L	-lus	8G\L	-lus	4g\	-lus	4dd\	-lus
8GG/J	.	8B\J	.	.	.	.	.
=31	=31	=31	=31	=31	=31	=31	=31
4Cn/	san-	4cn\	san-	4g\	san-	4ee\	san-
8C/	-ctus	8c\	-ctus	8cc#X\	-ctus	8ee\	-ctus
8C/	tu	8c\	tu	8b\	tu	8dd\	tu
!LO:LB:g=original	!	!LO:LB:g=original	!	!	!	!	!
8C#X/	so-	8e\	so-	8a\	so-	8ccn\	so-
8C#/	-lus	8e\	-lus	8g\	-lus	8b\	-lus
=32	=32	=32	=32	=32	=32	=32	=32
4D\	ſan-	4d\	san-	4g\	san-	4b\	san-
!	!	!	!	!LO:LB:g=original	!	!	!
8D\	-ctus	8d\	-ctus	8f#\	-ctus	8a\	-ctus
8D\	tu	8A\	tu	8f#\	tu	8dd\	tu
8D\	so-	8A\	so-	8f#\	so-	8dd\	so-
8D\	-lus	8A\	-lus	8f#\	-lus	8dd\	-lus
=33	=33	=33	=33	=33	=33	=33	=33
8E\	Do-	8A\	Do-	8g\	Do-	8cc#X\	Do-
8E\	-mi-	8A\	-mi-	8g\	-mi-	8cc#\	-mi-
8E\	-nus	8A\	-nus	8g\	-nus	8cc#\	-nus
8E\	tu	8A\	tu	8g\	so-	8cc#\	so-
8E\	so-	8A\	so-	8g\	-lus	8cc#\	-lus
8E\	-lus	8A\	-lus	8g\	al-	8cc#\	al-
=34	=34	=34	=34	=34	=34	=34	=34
8F#\	Do-	8A\	Do-	8a\	-tis-	8dd\	-tis-
8F#\	-mi-	8d\	-mi-	8a\	-si-	8dd\	-si-
!	!	!	!	!	!	!LO:LB:g=original	!
8F#\	-nus	8d\	-nus	8a\	-mus	8dd\	-mus,
8F#\	so-	8d\	so-	8a\	so-	8dd\	so-
8E\	-lus	8c#X\	-lus	8a\	-lus	8ee\	-lus
8D\	al-	8d\	al-	8a\	al-	8ff#\	al-
!LO:LB:g=original	!	!LO:LB:g=original	!	!	!	!	!
=35	=35	=35	=35	=35	=35	=35	=35
8C#/	-tis-	8e\	-tis-	8a\	-tis-	8gg\	-tis-
8C#/	-si-	8e\	-si-	8a\	-si-	8gg\	-si-
4c#\	-mus	4e\	-mus	4a\	-mus	4gg\	-mus
8c#\	Je-	8e\	Je-	8a\	Je-	8gg\	Je-
8d\	-su	8d\	-su	8a\	-su	8ff#\	-su
!	!	!	!	!LO:LB:g=original	!	!	!
=36	=36	=36	=36	=36	=36	=36	=36
4A\	Chris-	4d\	Chris-	4a\	Chri-	4ff#\	Chri-
4AA/	-te,	4c#X\	-te,	4a\	-ste	4ee\	-ste,
4r	.	4r	.	4r	.	4r	.
!	!	!	!	!	!	!LO:TX:b:t=Volti Subitto	!
!	!	!	!	!	!	!LO:PB:g=original	!
=37	=37	=37	=37	=37	=37	=37	=37
4D\	Cum	4A\	Cum	4f#\	Cum	4dd\	Cum
8D\	san-	8A\	san-	8f#\	san-	8dd\	san-
8E\	-cto	8A\	-cto	8f#\	-cto	8dd\	-cto
8F#\	spi-	8A\	ſpi-	8f#\	ſpi-	8dd\	spi-
8G\	-ri-	8A\	-ri-	8f#\	-ri-	8dd\	-ri-
=38	=38	=38	=38	=38	=38	=38	=38
8A\	-tu	8.A\	-tu,	8.f#\	-tu,	8.dd\	-tu
8AA/	cum	.	.	.	.	.	.
.	.	16A\	cum	16e\	cum	16cc#\	Cum
4AA/	san-	4A\	san-	4e\	san-	4cc#\	ſan-
4A\	-cto	4A\	-cto	8.e\L	-cto	8dd\L	-cto
.	.	.	.	.	.	8ee\J	.
.	.	.	.	16f#\Jk	.	.	.
=39	=39	=39	=39	=39	=39	=39	=39
4c#\	ſpi-	4A\	ſpi-	4.g\	spi-	4.ee\	ſpi-
!	!	!LO:LB:g=original	!	!	!	!	!
4A\	-ri-	4c#\	-ri-	.	.	.	.
.	.	.	.	8g\	-ri-	8ee\	-ri-
4c#\	-tu	4A\	-tu	4g\	-tu	4ee\	-tu
!LO:LB:g=original	!	!	!	!	!	!	!
=40	=40	=40	=40	=40	=40	=40	=40
4d\	in	4A\	in	4g\	in	4ee\	in
4D\	glo-	4A\	glo-	4f#\	glo-	4dd\	glo-
8D\	-ri-	8A\	-ri-	8f#\	-ri-	8dd\	-ri-
8D\	-a	8A\	-a	8f#\	-a	8dd\	-a
=41	=41	=41	=41	=41	=41	=41	=41
8BB/	De-	8B\	De-	8f#\	De-	8dd#X\	De-
8B\	-i	8B\	-i	8f#\	-i	8dd#\	-i
4B\	Pa-	4B\	Pa-	4f#\	Pa-	4dd#\	Pa-
4BB/	-tris	4B\	-tris	4f#\	-tris	4dd#\	-tris
!	!	!	!	!LO:LB:g=original	!	!LO:LB:g=original	!
=42	=42	=42	=42	=42	=42	=42	=42
4E\	a-	4B\	a-	4g\	a-	4ee\	a-
8G\	-men	8B\	-men	8g\	-men	8ee\	-men
8E\	in	8B\	in	8g\	in	8ee\	in
8A\	glo-	8A\	glo-	8e\	glo-	8cc#\	glo-
16AA/	-ri-	16A\	-ri-	16e\	-ri-	16cc#\	-ri-
16AA/	-a	16A\	-a	16e\	-a	16cc#\	-a
=43	=43	=43	=43	=43	=43	=43	=43
4F#\	De-	4A\	De-	4d\	De-	4dd\	De-
4F#\	-i	4A\	-i	4d\	-i	4dd\	-i
!	!	!LO:LB:g=original	!	!	!	!	!
8D\	Pa-	8d\	Pa-	8a\	Pa-	8ff#\	Pa-
8F#\	-tris	8d\	-tris	8a\	-tri	8dd\	-tris
=44	=44	=44	=44	=44	=44	=44	=44
4G\	a-	4d\	a-	4g\	a-	4b\	a-
!LO:LB:g=original	!	!	!	!	!	!	!
8G\L	-men	4d\	-men	4g\	-men	4b\	-men
8F#\J	.	.	.	.	.	.	.
8E\	De-	8e\	De-	8b\	De-	8gg\	De-
8G\	-i	8e\	-i	8b\	-i	8ff#\	-i
=45	=45	=45	=45	=45	=45	=45	=45
8A\	Pa-	8e\	Pa-	8a\	Pa-	8cc#\	Pa-
8d\	-tris	8f#\	-tris	8a\	-tris	8dd\	-tris
4A\	a-	2e\	a-	2a\	a-	4dd\	a-
4AA/	.	.	.	.	.	4cc#\	.
=46	=46	=46	=46	=46	=46	=46	=46
4D\	-men	4f#\	-men	4a\	-men	4dd\	-men
4r	.	4r	.	4r	.	4r	.
4A\	a-	4e\	a-	4a\	a-	4cc#\	a-
=47	=47	=47	=47	=47	=47	=47	=47
4D\	-men.	4d\	-men.	4a\	-men.	4dd\	-men.
4r	.	4r	.	4r	.	4r	.
4r	.	4r	.	4r	.	4r	.
==	==	==	==	==	==	==	==
*-	*-	*-	*-	*-	*-	*-	*-
!!!system-decoration: [(s1,s2,s3,s4)]
!!!ENC: Andrzej Gręziak
!!!END: 2023-11-02
!!!ENC: Leszek Kubiak
!!!END: 2024-06-28
